; generated by Slic3r 1.2.9 on 2015-10-16 at 15:27:01

; external perimeters extrusion width = 0.50mm
; perimeters extrusion width = 0.58mm
; infill extrusion width = 0.58mm
; solid infill extrusion width = 0.58mm
; top infill extrusion width = 0.58mm

M107
M104 S200 ; set temperature
G28 ; home all axes
G1 Z5 F5000 ; lift nozzle

M109 S200 ; wait for temperature to be reached
G21 ; set units to millimeters
G90 ; use absolute coordinates
M82 ; use absolute distances for extrusion
G92 E0
G1 Z0.400 F7800.000
G1 E-2.00000 F2400.00000
G92 E0
G1 X73.627 Y80.220 F7800.000
G1 E2.00000 F2400.00000
G1 X75.383 Y78.720 E2.27422 F1200.000
G1 X77.543 Y77.905 E2.54845
G1 X78.800 Y77.786 E2.69842
G1 X121.200 Y77.786 E7.73406
G1 X123.475 Y78.183 E8.00828
G1 X125.480 Y79.327 E8.28251 F1200.000
G1 X126.980 Y81.083 E8.55673
G1 X127.795 Y83.243 E8.83096
G1 X127.914 Y84.500 E8.98093
G1 X127.914 Y115.500 E12.66265
G1 X127.517 Y117.775 E12.93687
G1 X126.373 Y119.780 E13.21110
G1 X124.617 Y121.280 E13.48532
G1 X122.457 Y122.095 E13.75955
G1 X121.200 Y122.214 E13.90951
G1 X78.800 Y122.214 E18.94516
G1 X76.525 Y121.817 E19.21938
G1 X74.520 Y120.673 E19.49360
G1 X73.020 Y118.917 E19.76783
G1 X72.205 Y116.757 E20.04205
G1 X72.086 Y115.500 E20.19202
G1 X72.086 Y84.500 E23.87374
G1 X72.483 Y82.225 E24.14797
G1 X73.590 Y80.285 E24.41328
G1 E22.41328 F2400.00000
G92 E0
G1 X113.514 Y110.614 F7800.000
G1 E2.00000 F2400.00000
G1 X86.486 Y110.614 E5.21002 F1200.000
G1 X86.486 Y89.386 E7.73121
G1 X113.514 Y89.386 E10.94123
G1 X113.514 Y110.539 E13.45351
G1 X112.800 Y109.900 F7800.000
G1 X87.200 Y109.900 E16.49390 F1200.000
G1 X87.200 Y90.100 E18.84545
G1 X112.800 Y90.100 E21.88584
G1 X112.800 Y109.825 E24.22848
G1 X112.800 Y110.400 F7800.000
G1 E22.22848 F2400.00000
G92 E0
G1 X84.678 Y101.099 F7800.000
G1 E2.00000 F2400.00000
G1 X84.554 Y101.481 E2.04768 F1200.000
G1 X84.354 Y101.829 E2.09536
G1 X84.085 Y102.127 E2.14304
G1 X83.760 Y102.363 E2.19072
G1 X83.393 Y102.526 E2.23839
G1 X83.001 Y102.610 E2.28607
G1 X82.599 Y102.610 E2.33375
G1 X82.207 Y102.526 E2.38143
G1 X81.840 Y102.363 E2.42910
G1 X81.515 Y102.127 E2.47678
G1 X81.246 Y101.829 E2.52446
G1 X81.046 Y101.481 E2.57214
G1 X80.922 Y101.099 E2.61982
G1 X80.880 Y100.700 E2.66750
G1 X80.922 Y100.301 E2.71518
G1 X81.050 Y99.906 E2.76441
G1 X81.292 Y99.508 E2.81980
G1 X81.046 Y99.081 E2.87837
G1 X80.922 Y98.699 E2.92605
G1 X80.880 Y98.300 E2.97373
G1 X80.922 Y97.901 E3.02140
G1 X81.050 Y97.506 E3.07064
G1 X81.269 Y97.146 E3.12077
G1 X81.515 Y96.873 E3.16440
G1 X81.840 Y96.637 E3.21208
G1 X82.207 Y96.474 E3.25975
G1 X82.599 Y96.390 E3.30743
G1 X83.001 Y96.390 E3.35512 F1200.000
G1 X83.393 Y96.474 E3.40279
G1 X83.760 Y96.637 E3.45047
G1 X84.085 Y96.873 E3.49815
G1 X84.354 Y97.171 E3.54583
G1 X84.554 Y97.519 E3.59350
G1 X84.678 Y97.901 E3.64118
G1 X84.720 Y98.300 E3.68886
G1 X84.678 Y98.699 E3.73654
G1 X84.554 Y99.081 E3.78422
G1 X84.312 Y99.500 E3.84167
G1 X84.554 Y99.919 E3.89913
G1 X84.678 Y100.301 E3.94680
G1 X84.720 Y100.700 E3.99448
G1 X84.686 Y101.025 E4.03325
G1 X82.926 Y101.896 F7800.000
G1 X82.674 Y101.896 E4.06310 F1200.000
G1 X82.428 Y101.843 E4.09295
G1 X82.199 Y101.741 E4.12280
G1 X81.996 Y101.593 E4.15265
G1 X81.827 Y101.407 E4.18250
G1 X81.702 Y101.189 E4.21235
G1 X81.624 Y100.950 E4.24220
G1 X81.598 Y100.700 E4.27205
G1 X81.624 Y100.450 E4.30190
G1 X81.703 Y100.207 E4.33230
G1 X81.845 Y99.974 E4.36460
G1 X81.996 Y99.807 E4.39140
G1 X82.418 Y99.500 E4.45334
G1 X81.996 Y99.193 E4.51529
G1 X81.827 Y99.007 E4.54514
G1 X81.702 Y98.789 E4.57499
G1 X81.624 Y98.550 E4.60484
G1 X81.598 Y98.300 E4.63469
G1 X81.624 Y98.050 E4.66454
G1 X81.703 Y97.807 E4.69495
G1 X81.845 Y97.574 E4.72725
G1 X81.996 Y97.407 E4.75404
G1 X82.199 Y97.259 E4.78389
G1 X82.428 Y97.157 E4.81374
G1 X82.674 Y97.104 E4.84359
G1 X82.926 Y97.104 E4.87344
G1 X83.172 Y97.157 E4.90329
G1 X83.401 Y97.259 E4.93313
G1 X83.604 Y97.407 E4.96298
G1 X83.773 Y97.593 E4.99283
G1 X83.898 Y97.811 E5.02268
G1 X83.976 Y98.050 E5.05253
G1 X84.002 Y98.300 E5.08238
G1 X83.976 Y98.550 E5.11223
G1 X83.898 Y98.789 E5.14208
G1 X83.773 Y99.007 E5.17193
G1 X83.604 Y99.193 E5.20178
G1 X83.182 Y99.500 E5.26372
G1 X83.604 Y99.807 E5.32567
G1 X83.773 Y99.993 E5.35552
G1 X83.898 Y100.211 E5.38537
G1 X83.976 Y100.450 E5.41522
G1 X84.002 Y100.700 E5.44507
G1 X83.976 Y100.950 E5.47492
G1 X83.898 Y101.189 E5.50477
G1 X83.773 Y101.407 E5.53461
G1 X83.604 Y101.593 E5.56446
G1 X83.401 Y101.741 E5.59431
G1 X83.172 Y101.843 E5.62416
G1 X82.999 Y101.880 E5.64510
G1 X82.815 Y102.122 F7800.000
G1 X85.410 Y100.242 F7800.000
G1 X85.210 Y99.627 E5.72194 F1200.000
G1 X85.137 Y99.500 E5.73934
G1 X85.210 Y99.373 E5.75674
G1 X85.410 Y98.758 E5.83358
G1 X85.772 Y98.815 E5.87705
G1 X85.772 Y100.185 E6.03975
G1 X85.484 Y100.230 E6.07430
G1 E4.07430 F2400.00000
G92 E0
G1 X114.228 Y100.185 F7800.000
G1 E2.00000 F2400.00000
G1 X114.228 Y98.815 E2.16270 F1200.000
G1 X114.590 Y98.758 E2.20616
G1 X114.790 Y99.373 E2.28300
G1 X114.863 Y99.500 E2.30040
G1 X114.790 Y99.627 E2.31780
G1 X114.590 Y100.242 E2.39465
G1 X114.302 Y100.197 E2.42920
G1 X114.228 Y111.328 F7800.000
G1 X114.228 Y101.215 E3.63030 F1200.000
G1 X114.590 Y101.158 E3.67377
G1 X114.790 Y101.773 E3.75061
G1 X115.065 Y102.251 E3.81610
G1 X115.435 Y102.661 E3.88162
G1 X115.881 Y102.985 E3.94714
G1 X116.385 Y103.209 E4.01264
G1 X116.924 Y103.324 E4.07815
G1 X117.476 Y103.324 E4.14366
G1 X118.015 Y103.209 E4.20916
G1 X118.478 Y103.003 E4.26937
G1 X118.950 Y102.677 E4.33747
G1 X119.372 Y102.209 E4.41225
G1 X119.372 Y113.672 E5.77356
G1 X80.628 Y113.672 E10.37492
G1 X80.628 Y102.210 E11.73623
G1 X81.035 Y102.661 E11.80834
G1 X81.481 Y102.985 E11.87385
G1 X81.985 Y103.209 E11.93935
G1 X82.524 Y103.324 E12.00486
G1 X83.076 Y103.324 E12.07037
G1 X83.615 Y103.209 E12.13588
G1 X84.119 Y102.985 E12.20138
G1 X84.565 Y102.661 E12.26689
G1 X84.935 Y102.251 E12.33240
G1 X85.210 Y101.773 E12.39791
G1 X85.410 Y101.158 E12.47475
G1 X85.772 Y101.215 E12.51821
G1 X85.772 Y111.328 E13.71932
G1 X114.153 Y111.328 E17.09007
G1 X116.607 Y102.526 F7800.000
G1 X116.240 Y102.363 E17.13774 F1200.000
G1 X115.915 Y102.127 E17.18543
G1 X115.646 Y101.829 E17.23312
G1 X115.446 Y101.481 E17.28078
G1 X115.322 Y101.099 E17.32845
G1 X115.280 Y100.700 E17.37614
G1 X115.322 Y100.301 E17.42383
G1 X115.446 Y99.919 E17.47150
G1 X115.688 Y99.500 E17.52895
G1 X115.446 Y99.081 E17.58640
G1 X115.322 Y98.699 E17.63406
G1 X115.280 Y98.300 E17.68176
G1 X115.322 Y97.901 E17.72945
G1 X115.446 Y97.519 E17.77711
G1 X115.646 Y97.171 E17.82478
G1 X115.915 Y96.873 E17.87247
G1 X116.240 Y96.637 E17.92015
G1 X116.607 Y96.474 E17.96783
G1 X116.999 Y96.390 E18.01550
G1 X117.401 Y96.390 E18.06318 F1200.000
G1 X117.793 Y96.474 E18.11086
G1 X118.160 Y96.637 E18.15853
G1 X118.485 Y96.873 E18.20622
G1 X118.754 Y97.171 E18.25390
G1 X118.954 Y97.519 E18.30157
G1 X119.078 Y97.901 E18.34924
G1 X119.120 Y98.300 E18.39693
G1 X119.078 Y98.699 E18.44462
G1 X118.954 Y99.081 E18.49229
G1 X118.712 Y99.500 E18.54974
G1 X118.954 Y99.919 E18.60719
G1 X119.078 Y100.301 E18.65485
G1 X119.120 Y100.700 E18.70255
G1 X119.078 Y101.099 E18.75024
G1 X118.954 Y101.481 E18.79790
G1 X118.754 Y101.829 E18.84557
G1 X118.476 Y102.137 E18.89488
G1 X118.127 Y102.378 E18.94515
G1 X117.793 Y102.526 E18.98857
G1 X117.401 Y102.610 E19.03625
G1 X116.999 Y102.610 E19.08393
G1 X116.680 Y102.542 E19.12270
G1 E17.12270 F2400.00000
G92 E0
G1 X116.818 Y99.500 F7800.000
G1 E2.00000 F2400.00000
G1 X116.396 Y99.193 E2.06195 F1200.000
G1 X116.227 Y99.007 E2.09180
G1 X116.102 Y98.789 E2.12164
G1 X116.024 Y98.550 E2.15149
G1 X115.998 Y98.300 E2.18134
G1 X116.024 Y98.050 E2.21120
G1 X116.102 Y97.811 E2.24104
G1 X116.227 Y97.593 E2.27089
G1 X116.396 Y97.407 E2.30074
G1 X116.599 Y97.259 E2.33059
G1 X116.829 Y97.157 E2.36044
G1 X117.074 Y97.104 E2.39029
G1 X117.326 Y97.104 E2.42013
G1 X117.571 Y97.157 E2.44998
G1 X117.801 Y97.259 E2.47983
G1 X118.004 Y97.407 E2.50968
G1 X118.173 Y97.593 E2.53953
G1 X118.298 Y97.811 E2.56938
G1 X118.376 Y98.050 E2.59922
G1 X118.402 Y98.300 E2.62908
G1 X118.376 Y98.550 E2.65893
G1 X118.298 Y98.789 E2.68877
G1 X118.173 Y99.007 E2.71862
G1 X118.001 Y99.197 E2.74905
G1 X117.573 Y99.493 E2.81090
G1 X118.004 Y99.807 E2.87430
G1 X118.173 Y99.993 E2.90415
G1 X118.298 Y100.211 E2.93399
G1 X118.376 Y100.450 E2.96384
G1 X118.402 Y100.700 E2.99369
G1 X118.376 Y100.950 E3.02355
G1 X118.298 Y101.189 E3.05339
G1 X118.173 Y101.407 E3.08324
G1 X118.001 Y101.597 E3.11367
G1 X117.776 Y101.752 E3.14610
G1 X117.571 Y101.843 E3.17274
G1 X117.326 Y101.896 E3.20259
G1 X117.074 Y101.896 E3.23243
G1 X116.829 Y101.843 E3.26228
G1 X116.599 Y101.741 E3.29213
G1 X116.396 Y101.593 E3.32198
G1 X116.227 Y101.407 E3.35184
G1 X116.102 Y101.189 E3.38168
G1 X116.024 Y100.950 E3.41152
G1 X115.998 Y100.700 E3.44138
G1 X116.024 Y100.450 E3.47123
G1 X116.102 Y100.211 E3.50108
G1 X116.227 Y99.993 E3.53092
G1 X116.396 Y99.807 E3.56077
G1 X116.757 Y99.544 E3.61381
G1 X116.328 Y99.396 F7800.000
G1 E1.61381 F2400.00000
G92 E0
G1 X114.228 Y88.672 F7800.000
G1 E2.00000 F2400.00000
G1 X85.772 Y88.672 E5.37966 F1200.000
G1 X85.772 Y97.785 E6.46200
G1 X85.410 Y97.842 E6.50546
G1 X85.210 Y97.227 E6.58230
G1 X84.934 Y96.749 E6.64781
G1 X84.565 Y96.339 E6.71332
G1 X84.119 Y96.015 E6.77883
G1 X83.615 Y95.791 E6.84433
G1 X83.076 Y95.676 E6.90984
G1 X82.524 Y95.676 E6.97535
G1 X81.985 Y95.791 E7.04086
G1 X81.481 Y96.015 E7.10636
G1 X81.035 Y96.339 E7.17187
G1 X80.628 Y96.790 E7.24398
G1 X80.628 Y86.328 E8.48652
G1 X119.372 Y86.328 E13.08788
G1 X119.372 Y96.791 E14.33043
G1 X118.965 Y96.339 E14.40253
G1 X118.519 Y96.015 E14.46805
G1 X118.015 Y95.791 E14.53356
G1 X117.476 Y95.676 E14.59906
G1 X116.924 Y95.676 E14.66457
G1 X116.385 Y95.791 E14.73007
G1 X115.881 Y96.015 E14.79558
G1 X115.435 Y96.339 E14.86109
G1 X115.065 Y96.749 E14.92661
G1 X114.790 Y97.227 E14.99210
G1 X114.590 Y97.842 E15.06895
G1 X114.228 Y97.785 E15.11241
G1 X114.228 Y88.747 E16.18584
G1 X120.086 Y85.614 F7800.000
G1 X120.086 Y114.386 E19.60292 F1200.000
G1 X79.914 Y114.386 E24.37391
G1 X79.914 Y85.614 E27.79099
G1 X120.011 Y85.614 E32.55308
G1 X120.800 Y84.900 F7800.000
G1 X120.800 Y115.100 E36.13978 F1200.000
G1 X79.200 Y115.100 E41.08042
G1 X79.200 Y84.900 E44.66712
G1 X120.725 Y84.900 E49.59885
G1 X120.550 Y85.333 F7800.000
G1 X118.936 Y87.107 F7800.000
G1 X118.593 Y86.764 E49.65722 F1200.000
G1 X117.570 Y86.764 E49.78039
G1 X118.936 Y88.130 E50.01295
G1 X118.936 Y89.154 E50.13611
G1 X116.546 Y86.764 E50.54285
G1 X115.523 Y86.764 E50.66602
G1 X118.936 Y90.177 E51.24694
G1 X118.936 Y91.201 E51.37010
G1 X114.499 Y86.764 E52.12520
G1 X113.476 Y86.764 E52.24837
G1 X118.936 Y92.224 E53.17765
G1 X118.936 Y93.247 E53.30082
G1 X114.664 Y88.975 E54.02795
G1 X114.664 Y89.998 E54.15111
G1 X118.936 Y94.271 E54.87825
G1 X118.936 Y95.294 E55.00141
G1 X114.664 Y91.022 E55.72854
G1 X114.664 Y92.045 E55.85171
G1 X117.905 Y95.286 E56.40334
G1 X116.867 Y95.272 E56.52828
G1 X114.664 Y93.069 E56.90324
G1 X114.664 Y94.092 E57.02641
G1 X116.076 Y95.504 E57.26678
G1 X115.428 Y95.880 E57.35691
G1 X114.664 Y95.116 E57.48700
G1 X113.925 Y88.236 F7800.000
G1 X112.453 Y86.764 E57.73758 F1200.000
G1 X111.429 Y86.764 E57.86075
G1 X112.902 Y88.236 E58.11133
G1 X111.878 Y88.236 E58.23449
G1 X110.406 Y86.764 E58.48508
G1 X109.382 Y86.764 E58.60824
G1 X110.855 Y88.236 E58.85883
G1 X109.831 Y88.236 E58.98199
G1 X108.359 Y86.764 E59.23258
G1 X107.336 Y86.764 E59.35574
G1 X108.808 Y88.236 E59.60632
G1 X107.784 Y88.236 E59.72949
G1 X106.312 Y86.764 E59.98007
G1 X105.289 Y86.764 E60.10324
G1 X106.761 Y88.236 E60.35382
G1 X105.738 Y88.236 E60.47699
G1 X104.265 Y86.764 E60.72757
G1 X103.242 Y86.764 E60.85073
G1 X104.714 Y88.236 E61.10132
G1 X103.691 Y88.236 E61.22448
G1 X102.218 Y86.764 E61.47507
G1 X101.195 Y86.764 E61.59823
G1 X102.667 Y88.236 E61.84882
G1 X101.644 Y88.236 E61.97198
G1 X100.172 Y86.764 E62.22256
G1 X99.148 Y86.764 E62.34573
G1 X100.621 Y88.236 E62.59631
G1 X99.597 Y88.236 E62.71948
G1 X98.125 Y86.764 E62.97006
G1 X97.101 Y86.764 E63.09323
G1 X98.574 Y88.236 E63.34381
G1 X97.550 Y88.236 E63.46697
G1 X96.078 Y86.764 E63.71756
G1 X95.054 Y86.764 E63.84072
G1 X96.527 Y88.236 E64.09131
G1 X95.503 Y88.236 E64.21447
G1 X94.031 Y86.764 E64.46505
G1 X93.008 Y86.764 E64.58822
G1 X94.480 Y88.236 E64.83880
G1 X93.457 Y88.236 E64.96197
G1 X91.984 Y86.764 E65.21255
G1 X90.961 Y86.764 E65.33572
G1 X92.433 Y88.236 E65.58630
G1 X91.410 Y88.236 E65.70946
G1 X89.937 Y86.764 E65.96005
G1 X88.914 Y86.764 E66.08321
G1 X90.386 Y88.236 E66.33380
G1 X89.363 Y88.236 E66.45696
G1 X87.891 Y86.764 E66.70754
G1 X86.867 Y86.764 E66.83071
G1 X88.339 Y88.236 E67.08129
G1 X87.316 Y88.236 E67.20446
G1 X85.844 Y86.764 E67.45504
G1 X84.820 Y86.764 E67.57821
G1 X86.293 Y88.236 E67.82879
G1 X85.336 Y88.303 E67.94418
G1 X83.797 Y86.764 E68.20616
G1 X82.773 Y86.764 E68.32932
G1 X85.336 Y89.327 E68.76549
G1 X85.336 Y90.350 E68.88865
G1 X81.750 Y86.764 E69.49900
G1 X81.064 Y87.101 E69.59101
G1 X85.336 Y91.373 E70.31814
G1 X85.336 Y92.397 E70.44131
G1 X81.064 Y88.124 E71.16844
G1 X81.064 Y89.148 E71.29160
G1 X85.336 Y93.420 E72.01873
G1 X85.336 Y94.444 E72.14190
G1 X81.064 Y90.171 E72.86903
G1 X81.064 Y91.195 E72.99220
G1 X85.336 Y95.467 E73.71933
G1 X84.449 Y95.603 E73.82733
G1 X81.064 Y92.218 E74.40349
G1 X81.064 Y93.242 E74.52666
G1 X83.063 Y95.241 E74.86687
G1 X82.140 Y95.341 E74.97857
G1 X81.064 Y94.265 E75.16175
G1 X81.064 Y95.288 E75.28491
G1 X81.402 Y95.627 E75.34246
G1 X80.842 Y97.120 F7800.000
G1 X80.677 Y97.342 E75.37526 F1200.000
G1 X80.424 Y97.780 E75.43532
G1 X80.396 Y98.287 E75.49568
G1 X80.425 Y98.821 E75.55923
G1 X80.500 Y99.298 E75.61653
G1 X80.551 Y99.499 E75.64125
G1 X80.503 Y99.685 E75.66401
G1 X80.421 Y100.210 E75.72717
G1 X80.396 Y100.713 E75.78694
G1 X80.424 Y101.220 E75.84729
G1 X80.668 Y101.643 E75.90525
G1 X80.835 Y101.873 E75.93901
G1 X84.582 Y103.113 F7800.000
G1 X85.336 Y103.868 E76.06738 F1200.000
G1 X85.336 Y104.891 E76.19043
G1 X83.936 Y103.490 E76.42865
G1 X83.148 Y103.725 E76.52756
G1 X85.336 Y105.913 E76.89983
G1 X85.336 Y106.936 E77.02287
G1 X82.118 Y103.718 E77.57028
G1 X81.064 Y103.687 E77.69716
G1 X85.336 Y107.959 E78.42393
G1 X85.336 Y108.982 E78.54698
G1 X81.064 Y104.710 E79.27374
G1 X81.064 Y105.733 E79.39679
G1 X85.336 Y110.005 E80.12356
G1 X81.064 Y112.893 F7800.000
G1 X81.407 Y113.236 E80.18190 F1200.000
G1 X82.430 Y113.236 E80.30494
G1 X81.064 Y111.870 E80.53729
G1 X81.064 Y110.847 E80.66034
G1 X83.453 Y113.236 E81.06670
G1 X84.476 Y113.236 E81.18974
G1 X81.064 Y109.824 E81.77011
G1 X81.064 Y108.802 E81.89315
G1 X85.498 Y113.236 E82.64753
G1 X86.521 Y113.236 E82.77057
G1 X85.049 Y111.764 E83.02103
G1 X85.336 Y111.028 E83.11604
G1 X81.064 Y106.756 E83.84280
G1 X81.064 Y107.779 E83.96585
G1 X85.336 Y112.051 E84.69262
G1 X86.072 Y111.764 E84.78762
G1 X87.544 Y113.236 E85.03808
G1 X88.567 Y113.236 E85.16112
G1 X87.095 Y111.764 E85.41158
G1 X88.118 Y111.764 E85.53462
G1 X89.590 Y113.236 E85.78508
G1 X90.613 Y113.236 E85.90813
G1 X89.141 Y111.764 E86.15859
G1 X90.164 Y111.764 E86.28163
G1 X91.636 Y113.236 E86.53209
G1 X92.659 Y113.236 E86.65513
G1 X91.187 Y111.764 E86.90559
G1 X92.209 Y111.764 E87.02863
G1 X93.682 Y113.236 E87.27909
G1 X94.705 Y113.236 E87.40213
G1 X93.232 Y111.764 E87.65259
G1 X94.255 Y111.764 E87.77563
G1 X95.728 Y113.236 E88.02609
G1 X96.750 Y113.236 E88.14913
G1 X95.278 Y111.764 E88.39959
G1 X96.301 Y111.764 E88.52264
G1 X97.773 Y113.236 E88.77309
G1 X98.796 Y113.236 E88.89614
G1 X97.324 Y111.764 E89.14660
G1 X98.347 Y111.764 E89.26964
G1 X99.819 Y113.236 E89.52010
G1 X100.842 Y113.236 E89.64314
G1 X99.370 Y111.764 E89.89360
G1 X100.393 Y111.764 E90.01664
G1 X101.865 Y113.236 E90.26710
G1 X102.888 Y113.236 E90.39014
G1 X101.416 Y111.764 E90.64060
G1 X102.439 Y111.764 E90.76364
G1 X103.911 Y113.236 E91.01410
G1 X104.934 Y113.236 E91.13715
G1 X103.461 Y111.764 E91.38760
G1 X104.484 Y111.764 E91.51065
G1 X105.957 Y113.236 E91.76111
G1 X106.980 Y113.236 E91.88415
G1 X105.507 Y111.764 E92.13461
G1 X106.530 Y111.764 E92.25765
G1 X108.003 Y113.236 E92.50811
