; generated by Slic3r 1.2.9 on 2015-10-15 at 12:16:35

; external perimeters extrusion width = 0.50mm
; perimeters extrusion width = 0.58mm
; infill extrusion width = 0.58mm
; solid infill extrusion width = 0.58mm
; top infill extrusion width = 0.58mm

M107
M104 S200 ; set temperature
G28 ; home all axes
G1 Z5 F5000 ; lift nozzle

M109 S200 ; wait for temperature to be reached
G21 ; set units to millimeters
G90 ; use absolute coordinates
M82 ; use absolute distances for extrusion
G92 E0
G1 Z0.400 F7800.000
G1 E-2.00000 F2400.00000
G92 E0
G1 X77.827 Y81.720 F7800.000
G1 E2.00000 F2400.00000
G1 X79.583 Y80.220 E2.27422 F1200.000
G1 X81.743 Y79.405 E2.54845
G1 X83.000 Y79.286 E2.69842
G1 X117.000 Y79.286 E6.73643
G1 X119.275 Y79.683 E7.01066
G1 X121.280 Y80.827 E7.28488 F1200.000
G1 X122.780 Y82.583 E7.55911
G1 X123.595 Y84.743 E7.83333
G1 X123.714 Y86.000 E7.98330
G1 X123.714 Y114.000 E11.30872
G1 X123.317 Y116.275 E11.58295
G1 X122.173 Y118.280 E11.85717
G1 X120.417 Y119.780 E12.13140
G1 X118.257 Y120.595 E12.40562
G1 X117.000 Y120.714 E12.55559
G1 X83.000 Y120.714 E16.59360
G1 X80.725 Y120.317 E16.86783
G1 X78.720 Y119.173 E17.14205
G1 X77.220 Y117.417 E17.41628
G1 X76.405 Y115.257 E17.69050
G1 X76.286 Y114.000 E17.84047
G1 X76.286 Y86.000 E21.16590
G1 X76.683 Y83.725 E21.44012
G1 X77.790 Y81.785 E21.70544
G1 E19.70544 F2400.00000
G92 E0
G1 X115.172 Y112.172 F7800.000
G1 E2.00000 F2400.00000
G1 X84.828 Y112.172 E5.60374 F1200.000
G1 X84.828 Y87.828 E8.49488
G1 X115.172 Y87.828 E12.09861
G1 X115.172 Y112.097 E14.98085
G1 X115.886 Y112.886 F7800.000
G1 X84.114 Y112.886 E18.75422 F1200.000
G1 X84.114 Y87.114 E21.81500
G1 X115.886 Y87.114 E25.58837
G1 X115.886 Y112.811 E28.64024
G1 X116.600 Y113.600 F7800.000
G1 X83.400 Y113.600 E32.58324 F1200.000
G1 X83.400 Y86.400 E35.81366
G1 X116.600 Y86.400 E39.75666
G1 X116.600 Y113.525 E42.97817
G1 X116.167 Y113.350 F7800.000
G1 X114.736 Y88.607 F7800.000
G1 X114.393 Y88.264 E43.03661 F1200.000
G1 X113.368 Y88.264 E43.16008
G1 X114.736 Y89.632 E43.39314
G1 X114.736 Y90.656 E43.51661
G1 X112.344 Y88.264 E43.92428
G1 X111.319 Y88.264 E44.04775
G1 X114.736 Y91.681 E44.63003
G1 X114.736 Y92.706 E44.75349
G1 X110.294 Y88.264 E45.51038
G1 X109.270 Y88.264 E45.63385
G1 X114.736 Y93.730 E46.56535
G1 X114.736 Y94.755 E46.68882
G1 X108.245 Y88.264 E47.79493
G1 X107.220 Y88.264 E47.91840
G1 X114.736 Y95.780 E49.19912
G1 X114.736 Y96.804 E49.32259
G1 X106.196 Y88.264 E50.77792
G1 X105.171 Y88.264 E50.90139
G1 X114.736 Y97.829 E52.53134
G1 X114.736 Y98.854 E52.65480
G1 X104.146 Y88.264 E54.45936
G1 X103.122 Y88.264 E54.58283
G1 X114.736 Y99.878 E56.56199
G1 X114.736 Y100.903 E56.68546
G1 X102.097 Y88.264 E58.83923
G1 X101.072 Y88.264 E58.96270
G1 X114.736 Y101.928 E61.29109
G1 X114.736 Y102.952 E61.41456
G1 X100.048 Y88.264 E63.91755
G1 X99.023 Y88.264 E64.04102
G1 X114.736 Y103.977 E66.71863
G1 X114.736 Y105.002 E66.84210
G1 X97.998 Y88.264 E69.69432
G1 X96.974 Y88.264 E69.81778
G1 X114.736 Y106.026 E72.84461
G1 X114.736 Y107.051 E72.96808
G1 X95.949 Y88.264 E76.16952
G1 X94.924 Y88.264 E76.29299
G1 X114.736 Y108.076 E79.66904
G1 X114.736 Y109.100 E79.79251
G1 X93.900 Y88.264 E83.34317
G1 X92.875 Y88.264 E83.46663
G1 X114.736 Y110.125 E87.19191
G1 X114.736 Y111.150 E87.31537
G1 X91.850 Y88.264 E91.21526
G1 X90.826 Y88.264 E91.33872
G1 X114.298 Y111.736 E95.33853
G1 X113.273 Y111.736 E95.46199
G1 X89.801 Y88.264 E99.46180
G1 X88.776 Y88.264 E99.58527
G1 X112.248 Y111.736 E103.58507
G1 X111.224 Y111.736 E103.70854
G1 X87.751 Y88.264 E107.70834
G1 X86.727 Y88.264 E107.83181
G1 X110.199 Y111.736 E111.83161
G1 X109.174 Y111.736 E111.95508
G1 X85.702 Y88.264 E115.95488
G1 X85.264 Y88.850 E116.04309
G1 X108.150 Y111.736 E119.94297
G1 X107.125 Y111.736 E120.06644
G1 X85.264 Y89.875 E123.79171
G1 X85.264 Y90.900 E123.91518
G1 X106.100 Y111.736 E127.46583
G1 X105.076 Y111.736 E127.58930
G1 X85.264 Y91.924 E130.96535
G1 X85.264 Y92.949 E131.08882
G1 X104.051 Y111.736 E134.29025
G1 X103.026 Y111.736 E134.41372
G1 X85.264 Y93.974 E137.44054
G1 X85.264 Y94.998 E137.56401
G1 X102.002 Y111.736 E140.41623
G1 X100.977 Y111.736 E140.53970
G1 X85.264 Y96.023 E143.21730
G1 X85.264 Y97.048 E143.34077
G1 X99.952 Y111.736 E145.84376
G1 X98.928 Y111.736 E145.96723
G1 X85.264 Y98.072 E148.29561
G1 X85.264 Y99.097 E148.41908
G1 X97.903 Y111.736 E150.57285
G1 X96.878 Y111.736 E150.69632
G1 X85.264 Y100.122 E152.67548
G1 X85.264 Y101.146 E152.79895
G1 X95.854 Y111.736 E154.60350
G1 X94.829 Y111.736 E154.72697
G1 X85.264 Y102.171 E156.35691
G1 X85.264 Y103.196 E156.48038
G1 X93.804 Y111.736 E157.93571
G1 X92.780 Y111.736 E158.05918
G1 X85.264 Y104.220 E159.33989
G1 X85.264 Y105.245 E159.46336
G1 X91.755 Y111.736 E160.56947
G1 X90.730 Y111.736 E160.69294
G1 X85.264 Y106.270 E161.62444
G1 X85.264 Y107.294 E161.74791
G1 X89.706 Y111.736 E162.50479
G1 X88.681 Y111.736 E162.62826
G1 X85.264 Y108.319 E163.21054
G1 X85.264 Y109.344 E163.33400
G1 X87.656 Y111.736 E163.74167
G1 X86.631 Y111.736 E163.86514
G1 X85.264 Y110.369 E164.09819
G1 X85.264 Y111.393 E164.22166
G1 X85.607 Y111.736 E164.28011
G1 Z0.800 F7800.000
G1 X115.807 Y112.807 F7800.000
G1 X84.193 Y112.807 E166.86078 F3600.000
G1 X84.193 Y87.193 E168.95165
G1 X115.807 Y87.193 E171.53232
G1 X115.807 Y112.732 E173.61708
G1 X116.297 Y113.297 F7800.000
G1 X83.703 Y113.297 E176.27789 F3600.000
G1 X83.703 Y86.703 E178.44891
G1 X116.297 Y86.703 E181.10972
G1 X116.297 Y113.222 E183.27462
G1 X116.750 Y113.750 F7800.000
G1 X83.250 Y113.750 E185.58193 F1800.000
G1 X83.250 Y86.250 E187.47599
G1 X116.750 Y86.250 E189.78330
G1 X116.750 Y113.675 E191.67220
G1 X116.317 Y113.500 F7800.000
G1 X115.265 Y112.514 F7800.000
G1 X115.514 Y112.265 E191.70087 F3000.000
G1 X115.514 Y111.571 E191.75758
G1 X114.571 Y112.514 E191.86646
G1 X113.876 Y112.514 E191.92317
G1 X115.514 Y110.876 E192.11226
G1 X115.514 Y110.182 E192.16897
G1 X113.182 Y112.514 E192.43826
G1 X112.487 Y112.514 E192.49497
G1 X115.514 Y109.487 E192.84446
G1 X115.514 Y108.793 E192.90118
G1 X111.793 Y112.514 E193.33087
G1 X111.098 Y112.514 E193.38759
G1 X115.514 Y108.098 E193.89749
G1 X115.514 Y107.404 E193.95420
G1 X110.404 Y112.514 E194.54431
G1 X109.709 Y112.514 E194.60102
G1 X115.514 Y106.709 E195.27134
G1 X115.514 Y106.015 E195.32805
G1 X109.015 Y112.514 E196.07857
G1 X108.321 Y112.514 E196.13528
G1 X115.514 Y105.321 E196.96600
G1 X115.514 Y104.626 E197.02272
G1 X107.626 Y112.514 E197.93364
G1 X106.932 Y112.514 E197.99036
G1 X115.514 Y103.932 E198.98149
G1 X115.514 Y103.237 E199.03820
G1 X106.237 Y112.514 E200.10954
G1 X105.543 Y112.514 E200.16626
G1 X115.514 Y102.543 E201.31780
G1 X115.514 Y101.848 E201.37451
G1 X104.848 Y112.514 E202.60626
G1 X104.154 Y112.514 E202.66297
G1 X115.514 Y101.154 E203.97493
G1 X115.514 Y100.459 E204.03164
G1 X103.459 Y112.514 E205.42380
G1 X102.765 Y112.514 E205.48051
G1 X115.514 Y99.765 E206.95288
G1 X115.514 Y99.070 E207.00959
G1 X102.070 Y112.514 E208.56216
G1 X101.376 Y112.514 E208.61887
G1 X115.514 Y98.376 E210.25165
G1 X115.514 Y97.681 E210.30836
G1 X100.681 Y112.514 E212.02134
G1 X99.987 Y112.514 E212.07805
G1 X115.514 Y96.987 E213.87123
G1 X115.514 Y96.292 E213.92795
G1 X99.292 Y112.514 E215.80134
G1 X98.598 Y112.514 E215.85805
G1 X115.514 Y95.598 E217.81164
G1 X115.514 Y94.903 E217.86836
G1 X97.903 Y112.514 E219.90216
G1 X97.209 Y112.514 E219.95887
G1 X115.514 Y94.209 E222.07287
G1 X115.514 Y93.515 E222.12959
G1 X96.515 Y112.514 E224.32380
G1 X95.820 Y112.514 E224.38051
G1 X115.514 Y92.820 E226.65492
G1 X115.514 Y92.126 E226.71164
G1 X95.126 Y112.514 E229.06626
G1 X94.431 Y112.514 E229.12297
G1 X115.514 Y91.431 E231.55779
G1 X115.514 Y90.737 E231.61451
G1 X93.737 Y112.514 E234.12954
G1 X93.042 Y112.514 E234.18625
G1 X115.514 Y90.042 E236.78148
G1 X115.514 Y89.348 E236.83820
G1 X92.348 Y112.514 E239.51364
G1 X91.653 Y112.514 E239.57035
G1 X115.514 Y88.653 E242.32600
G1 X115.514 Y87.959 E242.38271
G1 X90.959 Y112.514 E245.21856
G1 X90.264 Y112.514 E245.27527
G1 X115.291 Y87.486 E248.16567
G1 X114.597 Y87.486 E248.22238
G1 X89.570 Y112.514 E251.11278
G1 X88.875 Y112.514 E251.16949
G1 X113.902 Y87.486 E254.05989
G1 X113.208 Y87.486 E254.11660
G1 X88.181 Y112.514 E257.00700
G1 X87.486 Y112.514 E257.06371
G1 X112.513 Y87.486 E259.95411
G1 X111.819 Y87.486 E260.01082
G1 X86.792 Y112.514 E262.90122
G1 X86.097 Y112.514 E262.95793
G1 X111.125 Y87.486 E265.84833
G1 X110.430 Y87.486 E265.90504
G1 X85.403 Y112.514 E268.79544
G1 X84.709 Y112.514 E268.85215
G1 X109.736 Y87.486 E271.74255
G1 X109.041 Y87.486 E271.79926
G1 X84.486 Y112.041 E274.63510
G1 X84.486 Y111.347 E274.69181
G1 X108.347 Y87.486 E277.44745
G1 X107.652 Y87.486 E277.50416
G1 X84.486 Y110.652 E280.17959
G1 X84.486 Y109.958 E280.23630
G1 X106.958 Y87.486 E282.83152
G1 X106.263 Y87.486 E282.88824
G1 X84.486 Y109.263 E285.40326
G1 X84.486 Y108.569 E285.45997
G1 X105.569 Y87.486 E287.89478
G1 X104.874 Y87.486 E287.95150
G1 X84.486 Y107.874 E290.30610
G1 X84.486 Y107.180 E290.36282
G1 X104.180 Y87.486 E292.63722
G1 X103.485 Y87.486 E292.69393
G1 X84.486 Y106.485 E294.88813
G1 X84.486 Y105.791 E294.94484
G1 X102.791 Y87.486 E297.05884
G1 X102.096 Y87.486 E297.11555
G1 X84.486 Y105.096 E299.14934
G1 X84.486 Y104.402 E299.20605
G1 X101.402 Y87.486 E301.15963
G1 X100.707 Y87.486 E301.21635
G1 X84.486 Y103.707 E303.08972
G1 X84.486 Y103.013 E303.14644
G1 X100.013 Y87.486 E304.93961
G1 X99.319 Y87.486 E304.99632
G1 X84.486 Y102.319 E306.70929
G1 X84.486 Y101.624 E306.76600
G1 X98.624 Y87.486 E308.39877
G1 X97.930 Y87.486 E308.45548
G1 X84.486 Y100.930 E310.00804
G1 X84.486 Y100.235 E310.06475
G1 X97.235 Y87.486 E311.53710
G1 X96.541 Y87.486 E311.59382
G1 X84.486 Y99.541 E312.98596
G1 X84.486 Y98.846 E313.04268
G1 X95.846 Y87.486 E314.35462
G1 X95.152 Y87.486 E314.41133
G1 X84.486 Y98.152 E315.64307
G1 X84.486 Y97.457 E315.69978
G1 X94.457 Y87.486 E316.85131
G1 X93.763 Y87.486 E316.90803
G1 X84.486 Y96.763 E317.97935
G1 X84.486 Y96.068 E318.03607
G1 X93.068 Y87.486 E319.02719
G1 X92.374 Y87.486 E319.08390
G1 X84.486 Y95.374 E319.99482
G1 X84.486 Y94.679 E320.05153
G1 X91.679 Y87.486 E320.88224
G1 X90.985 Y87.486 E320.93896
G1 X84.486 Y93.985 E321.68946
G1 X84.486 Y93.290 E321.74618
G1 X90.290 Y87.486 E322.41648
G1 X89.596 Y87.486 E322.47319
G1 X84.486 Y92.596 E323.06329
G1 X84.486 Y91.901 E323.12000
G1 X88.901 Y87.486 E323.62989
G1 X88.207 Y87.486 E323.68661
G1 X84.486 Y91.207 E324.11629
G1 X84.486 Y90.513 E324.17301
G1 X87.513 Y87.486 E324.52249
G1 X86.818 Y87.486 E324.57920
G1 X84.486 Y89.818 E324.84848
G1 X84.486 Y89.124 E324.90519
G1 X86.124 Y87.486 E325.09426
G1 X85.429 Y87.486 E325.15098
G1 X84.486 Y88.429 E325.25984
G1 X84.486 Y87.735 E325.31656
G1 X84.735 Y87.486 E325.34522
G1 Z1.200 F7800.000
G1 X115.807 Y112.807 F7800.000
G1 X84.193 Y112.807 E327.92589 F3600.000
G1 X84.193 Y87.193 E330.01676
G1 X115.807 Y87.193 E332.59743
G1 X115.807 Y112.732 E334.68219
G1 X116.297 Y113.297 F7800.000
G1 X83.703 Y113.297 E337.34300 F3600.000
G1 X83.703 Y86.703 E339.51402
G1 X116.297 Y86.703 E342.17483
G1 X116.297 Y113.222 E344.33973
G1 X116.750 Y113.750 F7800.000
G1 X83.250 Y113.750 E346.64704 F1800.000
G1 X83.250 Y86.250 E348.54110
G1 X116.750 Y86.250 E350.84841
G1 X116.750 Y113.675 E352.73731
G1 X116.317 Y113.500 F7800.000
G1 X115.514 Y87.735 F7800.000
G1 X115.265 Y87.486 E352.76598 F3000.000
G1 X114.571 Y87.486 E352.82269
G1 X115.514 Y88.429 E352.93157
G1 X115.514 Y89.124 E352.98828
G1 X113.876 Y87.486 E353.17736
G1 X113.182 Y87.486 E353.23408
G1 X115.514 Y89.818 E353.50337
G1 X115.514 Y90.513 E353.56008
G1 X112.487 Y87.486 E353.90957
G1 X111.793 Y87.486 E353.96628
G1 X115.514 Y91.207 E354.39598
G1 X115.514 Y91.902 E354.45270
G1 X111.098 Y87.486 E354.96260
G1 X110.404 Y87.486 E355.01931
G1 X115.514 Y92.596 E355.60942
G1 X115.514 Y93.291 E355.66613
G1 X109.709 Y87.486 E356.33645
G1 X109.015 Y87.486 E356.39316
G1 X115.514 Y93.985 E357.14368
G1 X115.514 Y94.679 E357.20039
G1 X108.321 Y87.486 E358.03111
G1 X107.626 Y87.486 E358.08783
G1 X115.514 Y95.374 E358.99875
G1 X115.514 Y96.068 E359.05547
G1 X106.932 Y87.486 E360.04660
G1 X106.237 Y87.486 E360.10331
G1 X115.514 Y96.763 E361.17465
G1 X115.514 Y97.457 E361.23137
G1 X105.543 Y87.486 E362.38291
G1 X104.848 Y87.486 E362.43962
G1 X115.514 Y98.152 E363.67137
G1 X115.514 Y98.846 E363.72808
G1 X104.154 Y87.486 E365.04004
G1 X103.459 Y87.486 E365.09675
G1 X115.514 Y99.541 E366.48891
G1 X115.514 Y100.235 E366.54562
G1 X102.765 Y87.486 E368.01798
G1 X102.070 Y87.486 E368.07470
G1 X115.514 Y100.930 E369.62727
G1 X115.514 Y101.624 E369.68398
G1 X101.376 Y87.486 E371.31675
G1 X100.681 Y87.486 E371.37347
G1 X115.514 Y102.319 E373.08645
G1 X115.514 Y103.013 E373.14316
G1 X99.987 Y87.486 E374.93634
G1 X99.292 Y87.486 E374.99306
G1 X115.514 Y103.708 E376.86644
G1 X115.514 Y104.402 E376.92316
G1 X98.598 Y87.486 E378.87675
G1 X97.903 Y87.486 E378.93347
G1 X115.514 Y105.097 E380.96726
G1 X115.514 Y105.791 E381.02398
G1 X97.209 Y87.486 E383.13798
G1 X96.515 Y87.486 E383.19469
G1 X115.514 Y106.485 E385.38890
G1 X115.514 Y107.180 E385.44562
G1 X95.820 Y87.486 E387.72003
G1 X95.126 Y87.486 E387.77674
G1 X115.514 Y107.874 E390.13136
G1 X115.514 Y108.569 E390.18808
G1 X94.431 Y87.486 E392.62290
G1 X93.737 Y87.486 E392.67961
G1 X115.514 Y109.263 E395.19464
G1 X115.514 Y109.958 E395.25136
G1 X93.042 Y87.486 E397.84659
G1 X92.348 Y87.486 E397.90331
G1 X115.514 Y110.652 E400.57874
G1 X115.514 Y111.347 E400.63546
G1 X91.653 Y87.486 E403.39110
G1 X90.959 Y87.486 E403.44782
G1 X115.514 Y112.041 E406.28367
G1 X115.291 Y112.514 E406.32629
G1 X90.264 Y87.486 E409.21669
G1 X89.570 Y87.486 E409.27340
G1 X114.597 Y112.514 E412.16380
G1 X113.902 Y112.514 E412.22051
G1 X88.875 Y87.486 E415.11091
G1 X88.181 Y87.486 E415.16762
G1 X113.208 Y112.514 E418.05802
G1 X112.513 Y112.514 E418.11473
G1 X87.486 Y87.486 E421.00513
G1 X86.792 Y87.486 E421.06184
G1 X111.819 Y112.514 E423.95224
G1 X111.125 Y112.514 E424.00895
G1 X86.097 Y87.486 E426.89935
G1 X85.403 Y87.486 E426.95606
G1 X110.430 Y112.514 E429.84646
G1 X109.736 Y112.514 E429.90317
G1 X84.709 Y87.486 E432.79357
G1 X84.486 Y87.959 E432.83620
G1 X109.041 Y112.514 E435.67203
G1 X108.347 Y112.514 E435.72875
G1 X84.486 Y88.653 E438.48438
G1 X84.486 Y89.348 E438.54109
G1 X107.652 Y112.514 E441.21652
G1 X106.958 Y112.514 E441.27324
G1 X84.486 Y90.042 E443.86846
G1 X84.486 Y90.737 E443.92517
G1 X106.263 Y112.514 E446.44019
G1 X105.569 Y112.514 E446.49690
G1 X84.486 Y91.431 E448.93172
G1 X84.486 Y92.126 E448.98843
G1 X104.874 Y112.514 E451.34304
G1 X104.180 Y112.514 E451.39975
G1 X84.486 Y92.820 E453.67415
G1 X84.486 Y93.515 E453.73087
G1 X103.485 Y112.514 E455.92507
G1 X102.791 Y112.514 E455.98178
G1 X84.486 Y94.209 E458.09577
G1 X84.486 Y94.904 E458.15249
G1 X102.096 Y112.514 E460.18627
G1 X101.402 Y112.514 E460.24299
G1 X84.486 Y95.598 E462.19657
G1 X84.486 Y96.293 E462.25328
G1 X100.707 Y112.514 E464.12666
G1 X100.013 Y112.514 E464.18337
G1 X84.486 Y96.987 E465.97655
G1 X84.486 Y97.681 E466.03326
G1 X99.319 Y112.514 E467.74623
G1 X98.624 Y112.514 E467.80294
G1 X84.486 Y98.376 E469.43570
G1 X84.486 Y99.070 E469.49242
G1 X97.930 Y112.514 E471.04497
G1 X97.235 Y112.514 E471.10169
G1 X84.486 Y99.765 E472.57404
G1 X84.486 Y100.459 E472.63075
G1 X96.541 Y112.514 E474.02290
G1 X95.846 Y112.514 E474.07961
G1 X84.486 Y101.154 E475.39155
G1 X84.486 Y101.848 E475.44827
G1 X95.152 Y112.514 E476.68001
G1 X94.457 Y112.514 E476.73672
G1 X84.486 Y102.543 E477.88825
G1 X84.486 Y103.237 E477.94496
G1 X93.763 Y112.514 E479.01629
G1 X93.068 Y112.514 E479.07300
G1 X84.486 Y103.932 E480.06413
G1 X84.486 Y104.626 E480.12084
G1 X92.374 Y112.514 E481.03176
G1 X91.679 Y112.514 E481.08847
G1 X84.486 Y105.321 E481.91918
G1 X84.486 Y106.015 E481.97589
G1 X90.985 Y112.514 E482.72640
G1 X90.290 Y112.514 E482.78311
G1 X84.486 Y106.710 E483.45342
G1 X84.486 Y107.404 E483.51013
G1 X89.596 Y112.514 E484.10023
G1 X88.901 Y112.514 E484.15694
G1 X84.486 Y108.099 E484.66683
G1 X84.486 Y108.793 E484.72354
G1 X88.207 Y112.514 E485.15323
G1 X87.513 Y112.514 E485.20994
G1 X84.486 Y109.487 E485.55942
